public/assets/icons/timer_hidden.svg

<svg width="512" height="516" viewBox="0 0 512 516" fill="none" xmlns="http://www.w3.org/2000/svg">
<path fill-rule="evenodd" clip-rule="evenodd" d="M339.7 68.7198C364.017 77.6708 386.739 90.4669 407 106.62L419.9 84.2198C421.227 81.9211 422.089 79.3834 422.435 76.7517C422.782 74.1201 422.606 71.4459 421.919 68.882C421.232 66.3181 420.046 63.9146 418.43 61.809C416.814 59.7033 414.799 57.9366 412.5 56.6098L380.61 38.1998C378.311 36.8725 375.774 36.011 373.142 35.6646C370.51 35.3181 367.836 35.4935 365.272 36.1807C362.708 36.8679 360.305 38.0534 358.199 39.6695C356.093 41.2857 354.327 43.3008 353 45.5998L339.7 68.7198ZM256 512C374.87 512 471.58 415.29 471.61 296.42H471.58C471.58 253.891 459.201 214.199 437.857 180.758L137.667 476.544C171.657 498.949 212.333 512 256 512ZM118.943 462.704C71.0164 423.131 40.42 363.281 40.42 296.42C40.42 177.55 137.13 80.8398 256 80.8398C324.002 80.8398 384.753 112.49 424.293 161.833L295.678 288.562C294.579 283.021 292.325 277.742 289.03 273.083C284.204 266.258 277.381 261.097 269.5 258.31V175.16C269.5 171.586 268.08 168.159 265.553 165.632C263.026 163.104 259.599 161.685 256.025 161.685C252.451 161.685 249.024 163.104 246.497 165.632C243.97 168.159 242.55 171.586 242.55 175.16V258.31C235.563 260.779 229.39 265.122 224.704 270.863C220.019 276.605 217.002 283.523 215.984 290.863C214.965 298.204 215.984 305.682 218.929 312.482C221.874 319.283 226.631 325.142 232.682 329.421C237.172 332.596 242.245 334.81 247.585 335.949L118.943 462.704ZM248.516 285.22C250.732 283.74 253.336 282.95 256 282.95C259.571 282.955 262.994 284.376 265.519 286.901C268.044 289.426 269.465 292.849 269.47 296.42C269.47 299.084 268.68 301.688 267.2 303.903C265.72 306.118 263.616 307.845 261.155 308.864C258.693 309.884 255.985 310.151 253.372 309.631C250.759 309.111 248.359 307.828 246.475 305.945C244.591 304.061 243.309 301.661 242.789 299.048C242.269 296.435 242.536 293.726 243.555 291.265C244.575 288.804 246.301 286.7 248.516 285.22ZM172.3 68.7198C147.983 77.6708 125.261 90.4669 105 106.62L92.1 84.2198C90.7727 81.9211 89.9112 79.3834 89.5648 76.7517C89.2183 74.1201 89.3937 71.4459 90.0809 68.882C90.768 66.3181 91.9535 63.9146 93.5697 61.809C95.1858 59.7033 97.201 57.9366 99.5 56.6098L131.39 38.1998C133.689 36.8725 136.226 36.011 138.858 35.6646C141.49 35.3181 144.164 35.4935 146.728 36.1807C149.292 36.8679 151.695 38.0534 153.801 39.6695C155.907 41.2857 157.673 43.3008 159 45.5998L172.3 68.7198ZM309.86 26.9198V59.9198L309.89 59.9498C274.408 51.9238 237.582 51.9238 202.1 59.9498V26.9498C202.113 19.8063 204.957 12.9591 210.008 7.90789C215.059 2.85664 221.906 0.0130334 229.05 -0.000183105H282.95C290.081 0.0235572 296.914 2.8677 301.956 7.91133C306.997 12.955 309.839 19.7884 309.86 26.9198Z" fill="#1CD997"/>
<g filter="url(#filter0_d_2_13)">
<path d="M65 493L452 108" stroke="#FF3A3A" stroke-width="40" stroke-linejoin="round"/>
</g>
<defs>
<filter id="filter0_d_2_13" x="46.8946" y="93.8213" width="423.211" height="421.357" filterUnits="userSpaceOnUse" color-interpolation-filters="sRGB">
<feFlood flood-opacity="0" result="BackgroundImageFix"/>
<feColorMatrix in="SourceAlpha" type="matrix" values="0 0 0 0 0 0 0 0 0 0 0 0 0 0 0 0 0 0 127 0" result="hardAlpha"/>
<feOffset dy="4"/>
<feGaussianBlur stdDeviation="2"/>
<feComposite in2="hardAlpha" operator="out"/>
<feColorMatrix type="matrix" values="0 0 0 0 0 0 0 0 0 0 0 0 0 0 0 0 0 0 0.25 0"/>
<feBlend mode="normal" in2="BackgroundImageFix" result="effect1_dropShadow_2_13"/>
<feBlend mode="normal" in="SourceGraphic" in2="effect1_dropShadow_2_13" result="shape"/>
</filter>
</defs>
</svg>

<svg xmlns="http://www.w3.org/2000/svg" width="512" height="516" fill="none"><path fill-rule="evenodd" d="M339.7 68.72a242.13 242.13 0 0 1 67.3 37.9l12.9-22.4c1.327-2.299 2.189-4.836 2.535-7.468s.171-5.306-.516-7.87a20.21 20.21 0 0 0-3.489-7.073c-1.616-2.106-3.631-3.872-5.93-5.199L380.61 38.2a20.21 20.21 0 0 0-15.338-2.019c-2.564.687-4.967 1.873-7.073 3.489A20.21 20.21 0 0 0 353 45.6l-13.3 23.12zM256 512c118.87 0 215.58-96.71 215.61-215.58h-.03c0-42.529-12.379-82.221-33.723-115.662l-300.19 295.786C171.657 498.949 212.333 512 256 512zm-137.057-49.296C71.016 423.131 40.42 363.281 40.42 296.42c0-118.87 96.71-215.58 215.58-215.58 68.002 0 128.753 31.65 168.293 80.993L295.678 288.562a40.43 40.43 0 0 0-6.648-15.479c-4.826-6.825-11.649-11.986-19.53-14.773v-83.15c0-3.574-1.42-7.001-3.947-9.528a13.47 13.47 0 0 0-19.056 0c-2.527 2.527-3.947 5.954-3.947 9.528v83.15a40.42 40.42 0 0 0-26.566 32.553c-1.019 7.341 0 14.819 2.945 21.619s7.702 12.66 13.753 16.939c4.49 3.175 9.563 5.389 14.903 6.528L118.943 462.704zM248.516 285.22c2.216-1.48 4.82-2.27 7.484-2.27a13.49 13.49 0 0 1 13.47 13.47 13.47 13.47 0 0 1-8.315 12.444c-2.462 1.02-5.17 1.287-7.783.767a13.48 13.48 0 0 1-6.897-3.686 13.47 13.47 0 0 1-3.686-6.897c-.52-2.613-.253-5.322.766-7.783s2.746-4.565 4.961-6.045zM172.3 68.72a242.13 242.13 0 0 0-67.3 37.9l-12.9-22.4a20.21 20.21 0 0 1-2.019-15.338c.687-2.564 1.873-4.967 3.489-7.073a20.21 20.21 0 0 1 5.93-5.199l31.89-18.41a20.21 20.21 0 0 1 15.338-2.019c2.564.687 4.967 1.873 7.073 3.489A20.21 20.21 0 0 1 159 45.6l13.3 23.12zm137.56-41.8v33l.03.03a244.28 244.28 0 0 0-107.79 0v-33A27 27 0 0 1 229.05 0h53.9a27 27 0 0 1 19.006 7.912c5.041 5.044 7.883 11.877 7.904 19.008z" fill="#1cd997"/><g filter="url(#A)"><path d="M65 493L452 108" stroke="#ff3a3a" stroke-width="40" stroke-linejoin="round"/></g><defs><filter id="A" x="46.895" y="93.821" width="423.211" height="421.357" filterUnits="userSpaceOnUse" color-interpolation-filters="sRGB"><feFlood flood-opacity="0" result="A"/><feColorMatrix in="SourceAlpha" values="0 0 0 0 0 0 0 0 0 0 0 0 0 0 0 0 0 0 127 0" result="B"/><feOffset dy="4"/><feGaussianBlur stdDeviation="2"/><feComposite in2="B" operator="out"/><feColorMatrix values="0 0 0 0 0 0 0 0 0 0 0 0 0 0 0 0 0 0 0.25 0"/><feBlend in2="A"/><feBlend in="SourceGraphic"/></filter></defs></svg>
